assets/images/icon-read.svg

<svg width="15" height="15" viewBox="0 0 15 15" fill="none" xmlns="http://www.w3.org/2000/svg">
<path d="M10.4631 3.9473C10.1925 3.67662 9.83156 3.67662 9.65111 3.9473L6.2225 7.37591L7.03454 8.18795L10.4631 4.75934C10.7338 4.57889 10.7338 4.21798 10.4631 3.9473ZM13.0797 3.9473L7.12477 9.90225L5.04956 7.82704C4.77888 7.55636 4.41797 7.55636 4.23752 7.82704C4.05707 8.09772 3.96684 8.45863 4.23752 8.63908L6.76386 11.1654C7.03454 11.4361 7.39545 11.4361 7.5759 11.1654L13.982 4.75934C14.2527 4.48866 14.2527 4.12776 13.982 3.9473C13.6211 3.67662 13.2602 3.67662 13.0797 3.9473ZM0.718686 8.63908L3.24503 11.1654C3.51571 11.4361 3.87661 11.4361 4.05707 11.1654L4.5082 10.7143L1.62095 7.82704C1.35027 7.55636 0.989365 7.55636 0.718686 7.82704C0.448006 8.09772 0.538233 8.45863 0.718686 8.63908Z" fill="white"/>
</svg>

<svg xmlns="http://www.w3.org/2000/svg" width="15" height="15" fill="none" xmlns:v="https://vecta.io/nano"><path d="M10.463 3.947c-.271-.271-.632-.271-.812 0L6.223 7.376l.812.812 3.429-3.429c.271-.18.271-.541 0-.812zm2.617 0L7.125 9.902 5.05 7.827c-.271-.271-.632-.271-.812 0s-.271.632 0 .812l2.526 2.526c.271.271.632.271.812 0l6.406-6.406c.271-.271.271-.632 0-.812-.361-.271-.722-.271-.902 0zM.719 8.639l2.526 2.526c.271.271.632.271.812 0l.451-.451-2.887-2.887a.6.6 0 0 0-.902 0c-.271.271-.18.632 0 .812z" fill="#fff"/></svg>
